X:600
T:The Skylark
M:4/4
L:1/8
K:D
B|Aafg efdB|AF F2 DFAd|BG G2 EFGE|FA (3AAA FAAf|
agfg egdB|AF F2 DFAd|BG G2 EGAG|1 FAag fd dB:|2 FAag fd df||
a2 fd Adfd|gfed cAAf|a2 fa bfed|Beed efge|
f3 a g3 e|faef dBAG|FA (3AAA GBed|1 ceag fd df:|2ceag fd dB||
